!!!!SEGMENT: pl-kk--kk-i-389--006-005_anonim--missa-no-6-sanctus.krn
!!!cenid: 17xx:2495
!!!COM: Anonim
!!!COM-rismID: pe30004985
!!!CDT:
!!!CNT:
!!!OPR: [Missa] No. 6.
!!!OTL: Sanctus
!!!OMV: 005
!!!PDT:
!!!AGN: Sacred; Mass
!!!YEC: Copyright 2022 Narodowy Instytut Fryderyka Chopina (https://polishscores.org)
!!!YEM: License CC-BY-4.0 (https://creativecommons.org/licenses/by/4.0)
!!!SMS-siglum: PL-Kk
!!!SMS-shelfmark: Kk.I.389
!!!SMS-variant:
!!!SMS-altvar:
!!!SMS-shelfwork: 006-005 M
!!!NIFC-rismSourceID: 1001146182
!!!NIFC-rismChildID: 1001147228
!!!NIFC-islandoraID: pl-kk:6976
!!!URL-pdf-islandora: https://repozytorium.nifc.pl/islandora/object/pl-kk%3A6976/datastream/PDF/view
!!!URL-scan: https://polish.musicsources.pl/pl/lokalizacje/galeria/rekopisy/5999/1 @EN{Scan on Polish Music Sources Website} @PL{Skany w portalu Dziedzictwo Muzyki Polskiej w otwartym dostępie}
!!!IIIF:
!!!ONB-nifc: UWAGA: S – skan 10-12, A – 29-31 , T – 48-49 , B – 67-69 . Części Mszy: Rorate, Kyrie, Gloria, Graduale, Sanctus, Benedictus, Agnus, Dona.
!!!AIN: 1 alto 1 bass 1 soprn 1 tenor
!!!key: d
**kern	**text	**kern	**text	**kern	**text	**kern	**text
*part4	*part4	*part3	*part3	*part2	*part2	*part1	*part1
*staff4	*staff4	*staff3	*staff3	*staff2	*staff2	*staff1	*staff1
*I"Basso.	*	*I"Tenore.	*	*I"Alto.	*	*I"Soprano.	*
*I'B	*	*I'T	*	*I'A	*	*I'S	*
*ICvox	*	*ICvox	*	*ICvox	*	*ICvox	*
*Ibass	*	*Itenor	*	*Ialto	*	*Isoprn	*
*clefF4	*	*clefC4	*	*clefC3	*	*clefC1	*
*k[b-]	*	*k[b-]	*	*k[b-]	*	*k[b-]	*
*d:	*	*d:	*	*d:	*	*d:	*
*M2/2	*	*M2/2	*	*M2/2	*	*M2/2	*
*met(c|)	*	*met(c|)	*	*met(c|)	*	*met(c|)	*
=1	=1	=1	=1	=1	=1	=1	=1
!LO:TX:a:t=P:problem:wszystkie caudy z prawej strony	!	!LO:TX:a:t=P:problem:wszystkie caudy z prawej strony	!	!LO:TX:a:t=P:problem:wszystkie caudy z prawej strony	!	!LO:TX:a:t=P:problem:wszystkie caudy z prawej strony	!
4D\	San-	1A	San-	1f	San-	1dd	San-
4E\	.	.	.	.	.	.	.
4F\	.	.	.	.	.	.	.
4D\	.	.	.	.	.	.	.
=2	=2	=2	=2	=2	=2	=2	=2
4E\	.	1c#X	-ctus	1g	ctus	4cc#X\	.
4F\	.	.	.	.	.	4dd\	.
4G\	.	.	.	.	.	4ee\	.
4E\	.	.	.	.	.	4cc#\	.
=3	=3	=3	=3	=3	=3	=3	=3
4F\	.	4A/	san-	1f	San-	1dd	-ctus,
4B-\	.	4G/	.	.	.	.	.
4A\	.	4A\	.	.	.	.	.
4G#X\	.	4Bn\	.	.	.	.	.
=4	=4	=4	=4	=4	=4	=4	=4
*	*	*2\right	*	*	*	*	*
4A\	-ctus	2A\	-ctus	4e\	.	4cc#X\	San-
4r	.	.	.	4g\	.	4b-X\	.
2r	.	2r	.	4f\	.	4a\	.
.	.	.	.	4e\	-ctus	4g\	-ctus,
=5	=5	=5	=5	=5	=5	=5	=5
4F\	san-	1A	Sa-	1f	san-	4a\	San-
4G\	.	.	.	.	.	4b-X\	.
4A\	.	.	.	.	.	4cc\	.
4F\	.	.	.	.	.	4a\	.
=6	=6	=6	=6	=6	=6	=6	=6
4E\	.	1c	-ctus	1g	.	4g/	.
4D\	.	.	.	.	.	4f/	.
4C\	.	.	.	.	.	4e/	.
4E\	.	.	.	.	.	4g/	-ctus,
=7	=7	=7	=7	=7	=7	=7	=7
4F\	.	4c\	sa-	4a\	.	4a\	San-
4G\	.	4B-\	.	4g\	.	4b-X\	.
*	*	*	*	*2\right	*	*	*
4A\	.	2A\	.	2f\	.	4cc\	.
4B-\	.	.	.	.	.	4dd\	.
!	!	!	!	!	!	!LO:LB:g=original	!
=8	=8	=8	=8	=8	=8	=8	=8
*	*	*	*	*	*	*2\right	*
2c\	-ctus,	2c\	-ctus	2g\	-ctus	2ee\	-ctus,
2r	.	2r	.	2r	.	2r	.
!	!	!LO:LB:g=original	!	!LO:LB:g=original	!	!	!
=9	=9	=9	=9	=9	=9	=9	=9
!	!	!	!	!LO:TX:t=P:problem:brakujący takt	!	!	!
2C#X/	San-	2A\	San-	1ryy	.	2ee\	San-
2C#/	-ctus	2A\	-ctus	.	.	2ee\	-ctus
=10	=10	=10	=10	=10	=10	=10	=10
4D\	Do-	2d\	Do-	2a\	Do-	2ff\	Do-
4A\	.	.	.	.	.	.	.
4F\	-mi-	4A\	-mi-	4f\	-mi-	4dd\	-mi-
4D\	-nus	4A\	-nus	4f\	-nus	4dd\	-nus
=11	=11	=11	=11	=11	=11	=11	=11
4G\	De-	4B-X\	De-	4e\	De-	4dd\	De-
4E\	-us	4G\	-us	4g\	-us	4cc#X\	-us
4A\	sa-	4A\	Sa-	4f\	sa-	4dd\	sa-
4AA/	-ba-	4A\	-ba-	4e\	-ba-	4cc#\	-ba-
=12	=12	=12	=12	=12	=12	=12	=12
4D\	-ot,	4A\	-ot,	4f\	-ot	4dd\	-ot,
4D\	Ple-	4A\	Ple-	4f\	Ple-	4dd\	ple-
4C#X/	-ni	4A\	-ni	4e\	-ni	4a\	-ni
4D/	sunt	4A\	sunt	4f\	sunt	4dd\	sunt
=13	=13	=13	=13	=13	=13	=13	=13
4E/	ce-	2A\	ce-	4g\	ce-	2cc#X\	Ce-
4D/	.	.	.	4f\	.	.	.
4C#X/	-li	4A\	-li	4e\	-li	4cc#\	-li
4AA/	et	4A\	et	4g\	et	4cc#\	et
=14	=14	=14	=14	=14	=14	=14	=14
4D\	ter-	1A	ter-	4f\	ter-	2dd\	ter-
4F\	.	.	.	4a\	.	.	.
4E\	.	.	.	4g\	.	4cc#X\	.
4D\	.	.	.	4f\	.	4dd\	.
=15	=15	=15	=15	=15	=15	=15	=15
2A\	-ra	2A\	-ra	2e\	-ra	2cc#X\	ra,
2r	.	2r	.	2r	.	2r	.
!	!	!LO:LB:g=original	!	!	!	!	!
=16	=16	=16	=16	=16	=16	=16	=16
4.G\	glo-	4.B-X\	glo-	4.e\	glo-	4.cc#X\	glo-
8G\	-ri-	8B-\	-ri-	8e\	-ri-	8cc#\	-ri-
2G\	-a	2B-\	-a	2e\	-a	2cc#\	-as
!	!	!	!	!	!	!LO:LB:g=original	!
!	!	!	!	!LO:LB:g=original	!	!	!
=17	=17	=17	=17	=17	=17	=17	=17
4F\	glo-	4A\	glo-	4f\	glo-	4dd\	glo-
4E\	.	4G\	.	4g\	.	4cc#X\	.
8D\L	.	4A\	-ri-	8f\L	.	4dd\	-ri-
8E\J	.	.	.	8g\J	.	.	.
8F\	-ri-	4B-\	-a	8f\L	-ri-	4dd\	-a
8G\	-a	.	.	8e\J	-a	.	.
=18	=18	=18	=18	=18	=18	=18	=18
2A\	tu-	1A	tu-	2f\	tu-	2dd\	tu-
2AA/	.	.	.	2f\	.	2cc#X\	.
=19	=19	=19	=19	=19	=19	=19	=19
1D	-a	1A	-a.	1f	-as,	1dd	-a,
=20||	=20||	=20||	=20||	=20||	=20||	=20||	=20||
*M3/2	*	*M3/2	*	*M3/2	*	*M3/2	*
2D\	O-	2A\	O-	2f\	o-	2dd\	O-
2F\	-san-	2A\	-san-	2a\	-san-	2dd\	-san-
2A\	-na	2c#X\	-na	2g\	-na	2ee\	-na
=21	=21	=21	=21	=21	=21	=21	=21
2F\	in	1A	in	1f	in	1dd	in
4D\	.	.	.	.	.	.	.
4E\	.	.	.	.	.	.	.
4F\	.	2A\	ex-	2f\	ex-	2dd\	ex-
4G\	ex-	.	.	.	.	.	.
=22	=22	=22	=22	=22	=22	=22	=22
2A\	-cel-	2A\	-cel-	1f	-cel-	2dd\	-cel-
2AA/	-sis,	2A\	-sis	.	.	2cc#X\	-sis
2r	.	2r	.	2e\	-sis	2r	.
!	!	!LO:LB:g=original	!	!	!	!	!
=23	=23	=23	=23	=23	=23	=23	=23
2AA/	O-	2A\	o-	2e\	O-	2cc#X\	O-
2C#X/	-san-	2A\	-san-	2e\	-san-	2cc#\	-san-
2E\	-na	2A\	-na	2e\	-na	2cc#\	-na
!	!	!	!	!LO:LB:g=original	!	!	!
=24	=24	=24	=24	=24	=24	=24	=24
1A	in	1c#X	in	1e	in	1cc#X	in
2A\	ex-	2c#\	ex-	2g\	ex-	2ee\	ex-
=25	=25	=25	=25	=25	=25	=25	=25
2d\	-cel-	2A\	-cel-	2g\	-cel-	2ee\	-cel-
2D\	-sis.	2A\	-sis	2f\	-sis	2dd\	-sis
2r	.	2r	.	2r	.	2r	.
!	!	!	!	!	!	!LO:LB:g=original	!
=26	=26	=26	=26	=26	=26	=26	=26
!	!	!LO:TX:a:t=1.	!	!	!	!	!
1.A	O-	1.r	.	4e\	o-	4cc#X\	O-
.	.	.	.	4d\	.	4bn\	.
.	.	.	.	4c#X\	.	4a\	.
.	.	.	.	4d\	.	4b\	.
.	.	.	.	4e\	.	4cc#\	.
.	.	.	.	4f\	.	4dd\	.
=27	=27	=27	=27	=27	=27	=27	=27
1A	-san-	2c#X\	O-	1g	-san-	1ee	-san-
.	.	2c#\	-san-	.	.	.	.
2A\	-na	2c#\	-na	2g\	-na	2ee\	-na
=28	=28	=28	=28	=28	=28	=28	=28
2D\	in	1A	in	2a\	in	2ff\	in
2E\	.	.	.	2g\	.	2ee\	.
2F\	ex-	2A\	ex-	2f\	ex-	2dd\	ex-
=29	=29	=29	=29	=29	=29	=29	=29
2G\	-cel-	2B-X\	-cel-	2g\	-cel-	2ee\	-cel-
2A\	.	1A	.	2f\	.	2dd\	.
2AA/	.	.	.	2e\	.	2cc#X\	.
=30	=30	=30	=30	=30	=30	=30	=30
1D	-sis.	1.A	-sis.	1.f	-sis.	1.dd	-sis.
2r	.	.	.	.	.	.	.
==	==	==	==	==	==	==	==
*-	*-	*-	*-	*-	*-	*-	*-
!!!system-decoration: [(s1,s2,s3,s4)]
!!!ENC: Filip Voros
!!!END: 2023-11-08
!!!ENC: Leszek Kubiak
!!!END: 2023-12-12
